X:632
T: GUTEN TAG HERR GAERTNERSMANN
N: E0582
O: Europa, Mitteleuropa, Deutschland, Thueringen
R: Liebes - Lied
M: 2/4
L: 1/8
K: G
 | DBBA | AGG2 |
DGFG | B2Az |
Aced | dcc2 |
ABcF | A2Gz

@@@ Tune index: 4282
